X:1
T: Mrs McKenzie of Applecross
C:Joseph Lowe
R:Strathspey
Q: 128
K:A
M:4/4
L:1/16
|:a2|e3A dcBA F3A E3A|d3B dcBA GB3 Ba3|ec3 c3A F3A E3A|F3A d3B cA3 A2a2|
e3A dcBA F3A E3A|d3B dcBA GB3 Ba3|ec3 c3A F3A E3A|F3A d3B cA3 A2g2|
a3e dcBA ce3 e3g|a3e dcBA bB3 B3g|a3e dcBA ce3 e3c|d3c Be3 cA3 A3g|
a3e dcBA ce3 e3g|a3e c3a bB3 B3g|((3a2g2a2) ((3e2f2g2) ((3a2e2d2) ((3c2B2A2) |((3B2b2a2) ((3g2f2g2) aA3 A2:|
